!!!OTL: Der Abschiedsku&szlig; (99), S. 249
!!!id: T0260
**kern
*clefG2
*k[f#]
*G:
{16g
=1
16g
8b
8b
8b
8b
=2
4b
8b}
=3
{8a
=4
8a
8cc
8b
8a
=5
4g}
8r
=6
{16b
16b
=7
8a
8g
8f#
8a
=8
8a
8dd
8dd}
=9
{8dd
=10
8dd
8dd
8dd
8dd
=11
8dd
8ee
8dd}
=12
{8cc
=13
8b
8b
8b
8b
=14
8b
8b
8a}
=15
{8b
=16
8dd
8dd
8cc
8a
=17
4g}
4r
==
*-
!!!minrhy: 16
!!!meters: 2/4 ]  ZZ[6
!!!cut: Der Abschiedsku&szlig; (99), S. 249
!!!reg: Luxemburg
!!!trd: Singendes Volk, Esch-Alzette 1937 posth.
!!!rhy1:   X_X_X_X_  X__X_   (x2)
!!!rhy2: X_  X_X_X_X_  X__0
!!!key: T0260  16  G 2/4 ]  ZZ[6
!!!mod: HEPTATONIK IONISCH]  AMBITUS[7b
!!!kad: 315521
!!!akz: 33_21_22_55_33_51_
!!!fot: 'a__b__c__as'aw_d__
!!!for: 'a__aw_aw_aw_aw_aw_
!!!fok: '-__\__Va_-__\__^d_
!! PHRAS[VORWIEGEND AUFTAKTIG]
!!!fkt: Liebeslieder
!!!bem: Lullingen, mitgeteilt: hhh Heinrich Godefroid (Lehrer)
!! THILL, Mathias:
!! PR[16] 2K[3] 2G[16] 3K[9] 3G[3] 4A[4] 4Ü[0] 5A[0] 6K[0] 6G[0]
!! 7K[1] 7G[0] 8A[0] MEHR[0] SI[36] ABS[70] SR[19] SP[17]
!! ST[16] 2k[9] 2g[29] 3k[4] 3g[1] 4d[6] 4ü[0] 5d[0] 6k[0] 6g[0]
!! 7k[0] 7g[0] 8d[0] mehr[0] si[49] dm[-13] sr[37] sp[11]
!! 1F[5] 2F[61] 3F[22] 4F[0] LF[0] 2P[5] 3P[7] 4P[0] TRI[0] DF[5] AB[74]
!! TF[0] U3K[0] U3[0] U4[0] U4Ü[0] U5[0] U6K[0] U6[0] U7K[0] U7[0]
!! N1[1] N2K[0] N2[8] N3K[0] N3[10] N4[8] N4Ü[0] N5[21] N6K[0] N6[14]
!!!n7k: 0] N7[6] O1[17] O2K[0] O2[10] O3K[0] O3[4] HÖ[0
!!!RNB: symbol: &szlig; = sz ligature (UTF-8: ÃŸ)
